raw/symbols/cake.svg

<svg width="42" height="42" viewBox="0 0 42 42" fill="none" xmlns="http://www.w3.org/2000/svg">
<circle cx="21" cy="21" r="21" fill="#49D6DD"/>
<path fill-rule="evenodd" clip-rule="evenodd" d="M12.5623 11.9769C12.1466 9.81549 13.8093 7.82031 15.9707 7.82031C17.8827 7.82031 19.4623 9.39983 19.4623 11.3119V15.6347C19.961 15.6347 20.4598 15.5516 20.9586 15.5516C21.4574 15.5516 21.8731 15.5516 22.3719 15.6347V11.3119C22.3719 9.39983 23.9514 7.82031 25.8634 7.82031C28.0249 7.82031 29.6875 9.81549 29.355 11.9769L28.4405 17.048C31.6827 18.4612 34.1767 20.9552 34.1767 24.0311V25.9432C34.1767 28.5203 32.514 30.6817 30.1032 32.0949C27.6924 33.5913 24.5333 34.4226 20.9586 34.4226C17.3839 34.4226 14.2249 33.5913 11.8141 32.0949C9.48638 30.6817 7.82373 28.5203 7.82373 25.9432V24.0311C7.82373 20.9552 10.2346 18.4612 13.4767 17.048L12.5623 11.9769ZM27.1936 17.7131L28.2743 11.7275C28.5237 10.2311 27.443 8.8179 25.8634 8.8179C24.5333 8.8179 23.4526 9.89862 23.4526 11.2287V16.7155C23.1201 16.6323 22.7044 16.6323 22.3719 16.6323C21.8731 16.6323 21.4574 16.5492 20.9586 16.5492C20.4598 16.5492 19.961 16.5492 19.4623 16.6323C19.1297 16.6323 18.7141 16.7155 18.3815 16.7155V11.3119C18.3815 9.98175 17.3008 8.90103 15.9707 8.90103C14.4743 8.90103 13.3105 10.3143 13.643 11.8107L14.7237 17.7962C11.2322 19.1263 8.90445 21.454 8.90445 24.1142V26.0263C8.90445 30.0998 14.3081 33.4251 20.9586 33.4251C27.6092 33.4251 33.0128 30.0998 33.0128 26.0263V24.1142C33.0959 21.3709 30.7682 19.0432 27.1936 17.7131Z" fill="#F3F3F3"/>
<path fill-rule="evenodd" clip-rule="evenodd" d="M8.86763 24.1504H8.8667V24.2425V26.0624C8.8667 30.1359 14.2819 33.4612 20.9467 33.4612C27.6115 33.4612 33.0267 30.1359 33.0267 26.0624H33.11V24.1504H33.0258C33.0264 24.1811 33.0267 24.2118 33.0267 24.2425C33.0267 28.316 27.6115 31.6413 20.9467 31.6413C14.2819 31.6413 8.8667 28.316 8.8667 24.2425C8.8667 24.2118 8.86701 24.1811 8.86763 24.1504Z" fill="#F3F3F3"/>
<path d="M17.6329 23.5421C17.6329 24.6228 17.051 25.5372 16.3028 25.5372C15.5546 25.5372 14.9727 24.6228 14.9727 23.5421C14.9727 22.4613 15.5546 21.5469 16.3028 21.5469C17.051 21.5469 17.6329 22.4613 17.6329 23.5421Z" fill="#F3F3F3"/>
<path d="M26.8614 23.5421C26.8614 24.6228 26.2795 25.5372 25.5313 25.5372C24.7831 25.5372 24.2012 24.6228 24.2012 23.5421C24.2012 22.4613 24.7831 21.5469 25.5313 21.5469C26.2795 21.5469 26.8614 22.4613 26.8614 23.5421Z" fill="#F3F3F3"/>
</svg>

<svg xmlns="http://www.w3.org/2000/svg" width="42" height="42" fill="none"><circle cx="21" cy="21" r="21" fill="#49D6DD"/><path fill="#F3F3F3" fill-rule="evenodd" d="M12.562 11.977c-.415-2.162 1.247-4.157 3.409-4.157 1.912 0 3.491 1.58 3.491 3.492v4.323c.499 0 .998-.083 1.497-.083.498 0 .914 0 1.413.083v-4.323c0-1.912 1.58-3.492 3.491-3.492 2.162 0 3.825 1.995 3.492 4.157l-.915 5.071c3.243 1.413 5.737 3.907 5.737 6.983v1.912c0 2.577-1.663 4.739-4.074 6.152-2.41 1.496-5.57 2.328-9.144 2.328-3.575 0-6.734-.832-9.145-2.328-2.328-1.413-3.99-3.575-3.99-6.152v-1.912c0-3.076 2.41-5.57 5.653-6.983l-.915-5.071Zm14.632 5.736 1.08-5.986c.25-1.496-.831-2.91-2.41-2.91-1.33 0-2.411 1.082-2.411 2.412v5.486c-.333-.083-.749-.083-1.081-.083-.499 0-.915-.083-1.413-.083-.5 0-.998 0-1.497.083-.332 0-.748.083-1.08.083v-5.403c0-1.33-1.081-2.411-2.411-2.411-1.497 0-2.66 1.413-2.328 2.91l1.08 5.985c-3.49 1.33-5.819 3.658-5.819 6.318v1.912c0 4.074 5.404 7.4 12.055 7.4 6.65 0 12.054-3.326 12.054-7.4v-1.912c.083-2.743-2.245-5.07-5.82-6.4Z" clip-rule="evenodd"/><path fill="#F3F3F3" fill-rule="evenodd" d="M8.868 24.15h-.001v1.913c0 4.073 5.415 7.398 12.08 7.398s12.08-3.325 12.08-7.399h.083V24.15h-.084v.093c0 4.073-5.415 7.398-12.08 7.398-6.664 0-12.08-3.325-12.08-7.398l.002-.093Z" clip-rule="evenodd"/><path fill="#F3F3F3" d="M17.633 23.542c0 1.08-.582 1.995-1.33 1.995-.748 0-1.33-.914-1.33-1.995 0-1.08.582-1.995 1.33-1.995.748 0 1.33.914 1.33 1.995ZM26.861 23.542c0 1.08-.582 1.995-1.33 1.995-.748 0-1.33-.914-1.33-1.995 0-1.08.582-1.995 1.33-1.995.748 0 1.33.914 1.33 1.995Z"/></svg>
